chrome/img/svgs/repeat-icon.svg

<?xml version="1.0" encoding="UTF-8"?>
<svg width="120px" height="120px" viewBox="0 0 120 120" version="1.1" xmlns="http://www.w3.org/2000/svg" xmlns:xlink="http://www.w3.org/1999/xlink">
    <!-- Generator: Sketch 42 (36781) - http://www.bohemiancoding.com/sketch -->
    <title>Shape</title>
    <desc>Created with Sketch.</desc>
    <defs></defs>
    <g id="Playground" stroke="none" stroke-width="1" fill="none" fill-rule="evenodd">
        <g id="Group" fill-rule="nonzero" fill="#000000">
            <path d="M93.195826,10.8668988 C83.6891944,4.5903292 72.2750699,0.932838444 60,0.932838444 C26.8629151,0.932838444 0,27.5869305 0,60.4664192 C0,93.345908 26.8629151,120 60,120 C93.1370849,120 120,93.345908 120,60.4664192 C120,56.7301465 119.653119,53.0742623 118.989569,49.5287431 L109.053903,50.8123327 C109.674612,53.9350649 110,57.1630383 110,60.4664192 C110,87.8659932 87.6142375,110.077737 60,110.077737 C32.3857625,110.077737 10,87.8659932 10,60.4664192 C10,33.0668452 32.3857625,10.8551019 60,10.8551019 C70.4581816,10.8551019 80.1664323,14.0409781 88.1927475,19.487971 L81.6700947,30.7275028 C80.4170128,32.8867553 81.4179325,34.3831135 83.9107276,34.061069 L109.409007,30.766944 C111.917144,30.4429176 113.139466,28.3122142 112.173407,26.0034578 L102.291794,2.38767104 C101.319789,0.0647054869 99.5249453,-0.0391452278 98.2696177,2.123977 L93.195826,10.8668988 Z" id="Shape"></path>
        </g>
    </g>
</svg>

<svg width="120" height="120" viewBox="0 0 120 120" xmlns="http://www.w3.org/2000/svg"><title>Shape</title><path d="M93.196 10.867C83.689 4.59 72.276.933 60 .933 26.863.933 0 27.587 0 60.466 0 93.346 26.863 120 60 120s60-26.654 60-59.534c0-3.736-.347-7.392-1.01-10.937l-9.936 1.283c.62 3.123.946 6.351.946 9.654 0 27.4-22.386 49.612-50 49.612S10 87.866 10 60.466c0-27.4 22.386-49.61 50-49.61 10.458 0 20.166 3.185 28.193 8.632l-6.523 11.24c-1.253 2.159-.252 3.655 2.24 3.333l25.499-3.294c2.508-.324 3.73-2.455 2.764-4.764l-9.881-23.615C101.32.065 99.525-.04 98.27 2.124l-5.074 8.743z" fill-rule="nonzero" fill="#000"/></svg>
